REACT_GL/src/assets/GreenLifetext.svg

<svg fill="none" height="45" viewBox="0 0 153 45" width="153" xmlns="http://www.w3.org/2000/svg"><path d="m4.58398 42.353v-9.6256h3.23187c.75037 0 1.36374.1363 1.84011.4088.47944.2695.83444.6345 1.06484 1.0951s.3456.9745.3456 1.5417c0 .5671-.1152 1.0826-.3456 1.5462-.2273.4638-.5791.8336-1.0555 1.1093-.47638.2726-1.08663.409-1.83077.409h-2.31648v-1.0341h2.27912c.51374 0 .92628-.0893 1.23763-.2679.31136-.1787.5371-.4198.6772-.7238.14322-.3071.21484-.6533.21484-1.0387s-.07162-.7301-.21484-1.034c-.1401-.304-.3674-.5421-.68187-.7144-.31447-.1755-.73168-.2633-1.25164-.2633h-2.03627v8.5917zm10.05792 0v-9.6256h5.7725v1.0339h-4.6143v3.2525h4.3155v1.0341h-4.3155v3.2712h4.6891v1.0339zm9.5699 0v-9.6256h3.2319c.7472 0 1.3606.1284 1.84.3854.4795.2537.8345.6031 1.0649 1.0481.2304.4448.3456.951.3456 1.5181s-.1152 1.0701-.3456 1.5087-.5838.7834-1.0602 1.0341c-.4763.2475-1.0851.3712-1.8261.3712h-2.6153v-1.0529h2.578c.5105 0 .9215-.0751 1.2329-.2255.3145-.1505.5418-.3634.6818-.6393.1434-.2788.2149-.6109.2149-.9963s-.0715-.7223-.2149-1.0105c-.1432-.2883-.372-.5108-.6865-.6675-.3144-.1597-.73-.2397-1.2469-.2397h-2.0363v8.5917zm4.5022-4.3239 2.3538 4.3239h-1.3451l-2.3164-4.3239zm5.7939-5.3017 2.8396 8.1028h.112l2.8396-8.1028h1.2143l-3.5121 9.6256h-1.1957l-3.512-9.6256zm17.8257 4.8127c0 1.0153-.182 1.8927-.5463 2.6321-.3643.7395-.864 1.3098-1.4991 1.7108-.6353.4011-1.3607.6016-2.1765.6016-.8157 0-1.5412-.2005-2.1763-.6016-.6352-.401-1.1349-.9713-1.4992-1.7108-.3643-.7394-.5464-1.6168-.5464-2.6321 0-1.0151.1821-1.8925.5464-2.6319.3643-.7395.864-1.3098 1.4992-1.7108.6351-.4011 1.3606-.6017 2.1763-.6017.8158 0 1.5412.2006 2.1765.6017.6351.401 1.1348.9713 1.4991 1.7108.3643.7394.5463 1.6168.5463 2.6319zm-1.1207 0c0-.8334-.1387-1.5368-.4158-2.1102-.2739-.5735-.646-1.0075-1.1161-1.3019-.4671-.2945-.9901-.4418-1.5693-.4418-.5791 0-1.1037.1473-1.5739.4418-.467.2944-.839.7284-1.1161 1.3019-.2741.5734-.411 1.2768-.411 2.1102 0 .8336.1369 1.5371.411 2.1104.2771.5734.6491 1.0073 1.1161 1.302.4702.2945.9948.4418 1.5739.4418.5792 0 1.1022-.1473 1.5693-.4418.4701-.2947.8422-.7286 1.1161-1.302.2771-.5733.4158-1.2768.4158-2.1104zm4.7781 4.8129v-9.6256h1.1582v8.5917h4.4461v1.0339zm10.2657-9.6256v9.6256h-1.1582v-9.6256zm4.4244 9.6256h-1.2143l3.512-9.6256h1.1956l3.5122 9.6256h-1.2143l-2.8583-8.1029h-.0748zm.4483-3.76h4.8945v1.034h-4.8945z" fill="#090909"/><path d="m14.6498 11.9121c-.1849-.5697-.4288-1.0801-.7314-1.5313-.2971-.45685-.6529-.84602-1.0677-1.16749-.4091-.32148-.8742-.56683-1.3955-.73603-.5212-.1692-1.0928-.2538-1.71489-.2538-1.02 0-1.94753.26508-2.78258.79525-.83505.53016-1.49918 1.31127-1.99236 2.34347-.49319 1.0321-.73978 2.2982-.73978 3.7985s.2494 2.7664.74819 3.7986c.49879 1.0321 1.17411 1.8133 2.02598 2.3435.85188.53 1.81022.7951 2.87506.7951.98638 0 1.85508-.2114 2.60608-.6344.7566-.4286 1.345-1.0321 1.7654-1.8105.4258-.7839.6389-1.706.6389-2.7664l.6389.1353h-5.1785v-1.8612h6.5572v1.8612c0 1.4269-.3028 2.6678-.908 3.7225-.5996 1.0547-1.4291 1.8725-2.4883 2.4534-1.0537.5752-2.2642.8629-3.63168.8629-1.5244 0-2.86385-.361-4.01835-1.0829-1.1489-.722-2.04561-1.7484-2.6901-3.0794-.63891-1.3311-.95836-2.9103-.95836-4.7377 0-1.3705.18215-2.6028.54643-3.697.36989-1.0998.89109-2.03607 1.56363-2.80876.67252-.77268 1.46834-1.36489 2.38747-1.77661.91911-.41173 1.93071-.61759 3.03477-.61759.90789 0 1.75419.13819 2.53879.41454.7902.27073 1.4936.65707 2.11 1.15903.6221.49633 1.1405 1.09136 1.5553 1.78509.4147.6881.7005 1.4523.8575 2.2927zm8.9011 11.9117v-17.32617h5.8174c1.345 0 2.4491.23124 3.3121.69373.8631.45684 1.502 1.0857 1.9167 1.88658.4148.8009.6221 1.71176.6221 2.73266 0 1.0208-.2073 1.9261-.6221 2.7156-.4147.7896-1.0508 1.4101-1.9083 1.8612-.8575.4456-1.9531.6684-3.287.6684h-4.7076v-1.8951h4.6404c.9192 0 1.659-.1353 2.2194-.4061.566-.2706.9751-.6542 1.2273-1.1505.2579-.502.3868-1.0998.3868-1.7935 0-.6938-.1289-1.3001-.3868-1.81896-.2578-.51889-.6697-.91934-1.2358-1.20133-.566-.28764-1.3142-.43147-2.2446-.43147h-3.6652v15.46496zm8.1039-7.7832 4.237 7.7832h-2.4211l-4.1698-7.7832zm10.116 7.7832v-17.32617h10.3904v1.86121h-8.3056v5.85436h7.7676v1.8612h-7.7676v5.8883h8.4402v1.8611zm17.2257 0v-17.32617h10.3905v1.86121h-8.3057v5.85436h7.7677v1.8612h-7.7677v5.8883h8.4402v1.8611zm30.8781-17.32617v17.32617h-2.0176l-9.3818-13.6037h-.1681v13.6037h-2.0848v-17.32617h2.0176l9.4154 13.63767h.168v-13.63767z" fill="#66952f"/><path d="m97.124 23.8233v-17.32623h2.0848v15.46503h8.0032v1.8612zm18.478-17.32623v17.32623h-2.084v-17.32623zm7.258 17.32623v-17.32623h10.323v1.86121h-8.238v5.85432h7.465v1.8613h-7.465v7.7494zm16.971 0v-17.32623h10.391v1.86121h-8.305v5.85432h7.767v1.8613h-7.767v5.8882h8.439v1.8612z" fill="#090909"/></svg>

<svg width="153" height="45" viewBox="0 0 153 45" fill="none" xmlns="http://www.w3.org/2000/svg">
<path d="M4.58398 42.353V32.7274H7.81585C8.56622 32.7274 9.17959 32.8637 9.65596 33.1362C10.1354 33.4057 10.4904 33.7707 10.7208 34.2313C10.9512 34.6919 11.0664 35.2058 11.0664 35.773C11.0664 36.3401 10.9512 36.8556 10.7208 37.3192C10.4935 37.783 10.1417 38.1528 9.6653 38.4285C9.18892 38.7011 8.57867 38.8375 7.83453 38.8375H5.51805V37.8034H7.79717C8.31091 37.8034 8.72345 37.7141 9.0348 37.5355C9.34616 37.3568 9.5719 37.1157 9.712 36.8117C9.85522 36.5046 9.92684 36.1584 9.92684 35.773C9.92684 35.3876 9.85522 35.0429 9.712 34.739C9.5719 34.435 9.3446 34.1969 9.03013 34.0246C8.71566 33.8491 8.29845 33.7613 7.77849 33.7613H5.74222V42.353H4.58398ZM14.6419 42.353V32.7274H20.4144V33.7613H15.8001V37.0138H20.1156V38.0479H15.8001V41.3191H20.4892V42.353H14.6419ZM24.2118 42.353V32.7274H27.4437C28.1909 32.7274 28.8043 32.8558 29.2837 33.1128C29.7632 33.3665 30.1182 33.7159 30.3486 34.1609C30.579 34.6057 30.6942 35.1119 30.6942 35.679C30.6942 36.2461 30.579 36.7491 30.3486 37.1877C30.1182 37.6263 29.7648 37.9711 29.2884 38.2218C28.8121 38.4693 28.2033 38.593 27.4623 38.593H24.847V37.5401H27.425C27.9355 37.5401 28.3465 37.465 28.6579 37.3146C28.9724 37.1641 29.1997 36.9512 29.3397 36.6753C29.4831 36.3965 29.5546 36.0644 29.5546 35.679C29.5546 35.2936 29.4831 34.9567 29.3397 34.6685C29.1965 34.3802 28.9677 34.1577 28.6532 34.001C28.3388 33.8413 27.9232 33.7613 27.4063 33.7613H25.37V42.353H24.2118ZM28.714 38.0291L31.0678 42.353H29.7227L27.4063 38.0291H28.714ZM34.5079 32.7274L37.3475 40.8302H37.4595L40.2991 32.7274H41.5134L38.0013 42.353H36.8056L33.2936 32.7274H34.5079ZM52.3336 37.5401C52.3336 38.5554 52.1516 39.4328 51.7873 40.1722C51.423 40.9117 50.9233 41.482 50.2882 41.883C49.6529 42.2841 48.9275 42.4846 48.1117 42.4846C47.296 42.4846 46.5705 42.2841 45.9354 41.883C45.3002 41.482 44.8005 40.9117 44.4362 40.1722C44.0719 39.4328 43.8898 38.5554 43.8898 37.5401C43.8898 36.525 44.0719 35.6476 44.4362 34.9082C44.8005 34.1687 45.3002 33.5984 45.9354 33.1974C46.5705 32.7963 47.296 32.5957 48.1117 32.5957C48.9275 32.5957 49.6529 32.7963 50.2882 33.1974C50.9233 33.5984 51.423 34.1687 51.7873 34.9082C52.1516 35.6476 52.3336 36.525 52.3336 37.5401ZM51.2129 37.5401C51.2129 36.7067 51.0742 36.0033 50.7971 35.4299C50.5232 34.8564 50.1511 34.4224 49.681 34.128C49.2139 33.8335 48.6909 33.6862 48.1117 33.6862C47.5326 33.6862 47.008 33.8335 46.5378 34.128C46.0708 34.4224 45.6988 34.8564 45.4217 35.4299C45.1476 36.0033 45.0107 36.7067 45.0107 37.5401C45.0107 38.3737 45.1476 39.0772 45.4217 39.6505C45.6988 40.2239 46.0708 40.6578 46.5378 40.9525C47.008 41.247 47.5326 41.3943 48.1117 41.3943C48.6909 41.3943 49.2139 41.247 49.681 40.9525C50.1511 40.6578 50.5232 40.2239 50.7971 39.6505C51.0742 39.0772 51.2129 38.3737 51.2129 37.5401ZM55.991 42.353V32.7274H57.1492V41.3191H61.5953V42.353H55.991ZM66.2567 32.7274V42.353H65.0985V32.7274H66.2567ZM70.6811 42.353H69.4668L72.9788 32.7274H74.1744L77.6866 42.353H76.4723L73.614 34.2501H73.5392L70.6811 42.353ZM71.1294 38.593H76.0239V39.627H71.1294V38.593Z" fill="#090909"/>
<path d="M14.6498 11.9121C14.4649 11.3424 14.221 10.832 13.9184 10.3808C13.6213 9.92395 13.2655 9.53478 12.8507 9.21331C12.4416 8.89183 11.9765 8.64648 11.4552 8.47728C10.934 8.30808 10.3624 8.22348 9.74031 8.22348C8.72031 8.22348 7.79278 8.48856 6.95773 9.01873C6.12268 9.54889 5.45855 10.33 4.96537 11.3622C4.47218 12.3943 4.22559 13.6604 4.22559 15.1607C4.22559 16.661 4.47499 17.9271 4.97378 18.9593C5.47257 19.9914 6.14789 20.7726 6.99976 21.3028C7.85164 21.8328 8.80998 22.0979 9.87482 22.0979C10.8612 22.0979 11.7299 21.8865 12.4809 21.4635C13.2375 21.0349 13.8259 20.4314 14.2463 19.653C14.6721 18.8691 14.8852 17.947 14.8852 16.8866L15.5241 17.0219H10.3456V15.1607H16.9028V17.0219C16.9028 18.4488 16.6 19.6897 15.9948 20.7444C15.3952 21.7991 14.5657 22.6169 13.5065 23.1978C12.4528 23.773 11.2423 24.0607 9.87482 24.0607C8.35042 24.0607 7.01097 23.6997 5.85647 22.9778C4.70757 22.2558 3.81086 21.2294 3.16637 19.8984C2.52746 18.5673 2.20801 16.9881 2.20801 15.1607C2.20801 13.7902 2.39016 12.5579 2.75444 11.4637C3.12433 10.3639 3.64553 9.42763 4.31807 8.65494C4.99059 7.88226 5.78641 7.29005 6.70554 6.87833C7.62465 6.4666 8.63625 6.26074 9.74031 6.26074C10.6482 6.26074 11.4945 6.39893 12.2791 6.67528C13.0693 6.94601 13.7727 7.33235 14.3891 7.83431C15.0112 8.33064 15.5296 8.92567 15.9444 9.6194C16.3591 10.3075 16.6449 11.0717 16.8019 11.9121H14.6498ZM23.5509 23.8238V6.49763H29.3683C30.7133 6.49763 31.8174 6.72887 32.6804 7.19136C33.5435 7.6482 34.1824 8.27706 34.5971 9.07794C35.0119 9.87884 35.2192 10.7897 35.2192 11.8106C35.2192 12.8314 35.0119 13.7367 34.5971 14.5262C34.1824 15.3158 33.5463 15.9363 32.6888 16.3874C31.8313 16.833 30.7357 17.0558 29.4018 17.0558H24.6942V15.1607H29.3346C30.2538 15.1607 30.9936 15.0254 31.554 14.7546C32.12 14.484 32.5291 14.1004 32.7813 13.6041C33.0392 13.1021 33.1681 12.5043 33.1681 11.8106C33.1681 11.1168 33.0392 10.5105 32.7813 9.99164C32.5235 9.47275 32.1116 9.0723 31.5455 8.79031C30.9795 8.50267 30.2313 8.35884 29.3009 8.35884H25.6357V23.8238H23.5509ZM31.6548 16.0406L35.8918 23.8238H33.4707L29.3009 16.0406H31.6548ZM41.7708 23.8238V6.49763H52.1612V8.35884H43.8556V14.2132H51.6232V16.0744H43.8556V21.9627H52.2958V23.8238H41.7708ZM58.9965 23.8238V6.49763H69.387V8.35884H61.0813V14.2132H68.849V16.0744H61.0813V21.9627H69.5215V23.8238H58.9965ZM89.8746 6.49763V23.8238H87.857L78.4752 10.2201H78.3071V23.8238H76.2223V6.49763H78.2399L87.6553 20.1353H87.8233V6.49763H89.8746Z" fill="#66952F"/>
<path d="M97.124 23.8233V6.49707H99.2088V21.9621H107.212V23.8233H97.124ZM115.602 6.49707V23.8233H113.518V6.49707H115.602ZM122.86 23.8233V6.49707H133.183V8.35828H124.945V14.2126H132.41V16.0739H124.945V23.8233H122.86ZM139.831 23.8233V6.49707H150.222V8.35828H141.917V14.2126H149.684V16.0739H141.917V21.9621H150.356V23.8233H139.831Z" fill="#090909"/>
</svg>
